src/img/event_icons/selah.svg

<svg fill="none" height="13" viewBox="0 0 18 13" width="18" xmlns="http://www.w3.org/2000/svg"><path d="m2.875 5.24609c0-.08203 0-.16406 0-.24609 0-2.40625 1.94141-4.375 4.375-4.375 1.61328 0 3.0352.90234 3.7734 2.21484.4102-.30078.9297-.46484 1.4766-.46484 1.4492 0 2.625 1.17578 2.625 2.625 0 .35547-.082.65625-.1914.95703 1.6133.32813 2.8164 1.75 2.8164 3.41797 0 1.9414-1.5859 3.5-3.5 3.5h-10.0625c-2.1875 0-3.9375-1.75-3.9375-3.9375 0-1.69531 1.09375-3.17188 2.625-3.69141z" fill="#000"/></svg>

<svg width="18" height="13" viewBox="0 0 18 13" fill="none" xmlns="http://www.w3.org/2000/svg">
<path d="M2.875 5.24609C2.875 5.16406 2.875 5.08203 2.875 5C2.875 2.59375 4.81641 0.625 7.25 0.625C8.86328 0.625 10.2852 1.52734 11.0234 2.83984C11.4336 2.53906 11.9531 2.375 12.5 2.375C13.9492 2.375 15.125 3.55078 15.125 5C15.125 5.35547 15.043 5.65625 14.9336 5.95703C16.5469 6.28516 17.75 7.70703 17.75 9.375C17.75 11.3164 16.1641 12.875 14.25 12.875H4.1875C2 12.875 0.25 11.125 0.25 8.9375C0.25 7.24219 1.34375 5.76562 2.875 5.24609Z" fill="black"/>
</svg>
